X: 390
T: The Red Fox
M:C
L:1/8
B:O'Neill's 390
N:"With spirit."
N:H is a fermata.
Z:Transcribed by Chris Falt, cfalt@trytel.com
K:G
D2|G2G>A B2B>c|d2d2 c2B>c|d3e B2G2|A3F GFED|
G2G>A B2Bc|d<dd2 c2Bc|d2de B2G2|A4 G2||
Bd|g2g2 f2ed|e2dB d2BA|G2G>A BAGB|A4 G2Bd|
g2g2 f2ed|e2dB Hd2BA|G2ge dBGB|A4 G2||


